images/cursor/hand-right.svg

<svg width="199" height="114" viewBox="0 0 199 114" fill="none" xmlns="http://www.w3.org/2000/svg">
<g clip-path="url(#clip0)">
<path d="M198.284 25.002C198.284 36.748 187.712 42.118 164.891 42.118C161.032 42.118 157.844 41.782 155.662 41.614C151.635 41.279 151.131 41.447 151.131 41.782C151.131 41.95 151.131 42.286 151.97 43.796C152.977 45.475 154.319 47.991 154.319 51.18C154.319 54.368 153.312 56.213 152.641 57.724C152.138 58.731 151.802 59.402 151.802 60.241C151.802 61.248 152.305 61.584 153.648 62.927C157.172 66.115 158.514 69.639 158.011 73.666C157.676 77.021 156.501 78.532 155.326 80.21C155.158 80.546 154.99 80.881 154.655 81.217C153.313 82.727 153.984 83.902 154.99 85.579C156.836 88.433 157.675 91.452 157.507 94.976C156.333 108.4 134.518 114.944 120.759 113.266C114.55 112.595 109.852 110.916 106.831 107.897C104.817 105.547 104.314 105.379 100.958 105.379C83.3388 105.379 75.7878 102.862 65.7198 96.989C60.1828 93.801 56.8268 92.123 52.7998 90.78C49.2758 89.437 49.4438 89.27 49.4438 93.633C49.4438 99.338 46.7588 101.017 37.6978 101.352C31.1538 101.52 30.9858 101.52 29.3078 104.54C26.2868 110.077 23.7698 109.07 14.2058 107.393C-3.91723 104.038 0.781768 107.225 0.781768 60.577C0.781768 8.39 -6.93723 13.929 26.1198 12.754C47.0948 11.915 49.1088 12.083 49.4448 18.627C49.7798 21.648 49.2768 21.648 53.6398 19.97C58.0028 18.627 61.6948 15.943 68.0708 11.244C75.7898 5.705 84.8508 0 95.4218 0C99.7848 0 104.483 1.175 108.846 3.691C113.209 6.041 114.048 6.879 118.243 6.544C126.297 5.705 135.862 5.705 148.112 5.705C182.343 5.705 198.284 11.746 198.284 25.002ZM42.2288 73.497C42.2288 68.463 42.0618 62.086 42.0618 54.2C42.0618 46.145 42.2288 39.936 42.3968 35.07C43.0678 19.632 43.0678 19.8 34.0068 19.968C26.7918 20.135 26.7918 20.135 27.7988 39.097C27.9668 43.627 28.3018 48.997 28.4698 55.709C28.6368 63.428 28.8048 69.637 28.8048 74.671C29.1398 94.136 29.1398 94.136 36.1878 93.464C42.5648 92.962 42.5648 92.458 42.2288 73.497ZM104.315 91.619C101.462 89.27 100.288 86.082 100.12 81.719C99.7848 78.698 99.2808 77.86 96.0928 77.021C91.5618 75.343 87.7028 70.98 87.3668 66.954C87.1988 65.275 87.7018 64.1 87.8698 63.262C88.2048 62.423 88.0378 62.591 88.2048 62.759C88.2048 62.759 88.0378 62.759 86.5268 63.43C85.0158 64.101 82.6678 65.276 79.4788 65.276C76.1228 65.276 72.9348 64.437 69.7468 62.423C65.8878 60.409 64.2088 59.402 65.5518 57.221C66.3908 55.543 67.5658 55.375 70.4178 56.382C71.0888 56.55 71.7598 56.718 72.4318 56.886C74.4448 57.389 76.4588 57.893 78.6398 57.893C87.0298 57.893 100.957 50.509 100.957 46.482C100.957 45.476 100.454 44.972 99.1108 43.629C98.1038 42.622 96.4258 41.112 94.5798 38.428C92.0628 34.401 91.3918 33.394 93.2378 31.716C94.4128 30.541 95.4198 30.876 97.4328 32.89C97.9358 33.394 98.6078 34.065 99.2788 34.736C109.179 43.63 117.234 47.657 124.449 47.657C129.819 47.657 132.839 45.811 133.343 42.623C134.014 40.106 133.343 38.597 130.49 34.233C128.644 31.045 125.791 27.521 122.435 23.83C119.918 26.851 120.086 30.374 122.938 34.401C123.273 34.904 123.609 35.408 123.945 35.743C126.127 38.764 126.63 40.274 124.448 41.449C122.266 42.959 121.26 41.281 118.407 36.75C114.38 30.038 114.548 25.172 118.743 20.138C111.527 13.258 102.802 7.721 94.7468 7.721C86.0208 7.721 76.4558 14.098 70.2478 18.628C62.1938 24.333 57.9978 27.186 53.6358 28.024C49.4408 29.031 49.4408 28.864 49.4408 34.233V77.693C49.4408 81.888 49.6078 82.056 52.6288 82.727C57.6628 84.07 61.1868 86.083 65.2138 88.265C66.5568 89.104 68.0668 89.943 69.7448 90.95C81.1558 96.991 89.0418 98.837 100.62 98.333C104.311 97.998 104.647 97.83 105.486 95.648C106.329 93.633 106.329 93.465 104.315 91.619ZM116.397 70.141C130.66 66.953 147.105 59.402 147.105 51.347C147.105 47.488 144.42 43.125 142.574 43.125C141.064 43.125 140.392 43.461 138.715 46.48C135.862 51.346 130.828 53.864 124.116 53.864C120.089 53.864 115.222 52.857 111.531 51.179C109.518 50.34 109.182 50.34 107.504 51.85C107.001 52.186 106.329 52.689 105.49 53.36C98.7778 58.226 94.0788 60.912 94.0788 64.939C94.2468 68.462 97.6028 70.979 102.805 71.483C105.49 71.651 108.678 71.483 111.867 70.979C114.216 62.085 109.014 61.08 106.162 63.092C102.638 65.442 99.9528 65.778 99.1138 63.428C97.7718 60.743 100.624 59.233 103.98 58.059C112.706 55.039 117.907 60.073 116.397 70.141ZM147.105 66.785C145.259 65.442 143.749 66.113 140.896 67.456C133.849 70.644 120.257 75.007 111.028 76.518C106.665 77.189 106.329 77.525 106.665 81.719C107.001 85.746 109.853 88.432 114.888 88.935C117.069 89.271 120.258 89.103 123.781 88.767C125.291 80.88 120.593 80.041 118.076 81.719C114.72 84.069 112.203 84.237 111.029 82.055C110.358 79.705 111.7 78.364 115.895 76.853C123.949 74 128.815 78.532 127.977 88.096C140.73 85.578 149.959 80.041 150.462 74.336C150.796 71.147 149.79 68.799 147.105 66.785ZM149.119 89.438C147.776 87.928 146.266 87.928 143.246 89.271C134.52 92.794 126.801 93.633 121.096 94.304C114.552 95.144 111.028 95.479 110.692 98.667C110.189 103.533 114.719 106.89 122.606 107.561C123.613 107.729 124.787 107.729 126.297 107.561C127.64 100.849 123.276 100.01 120.76 101.688C117.404 104.038 114.887 104.205 114.048 101.856C113.041 99.674 114.719 98.5 118.747 96.822C126.298 94.304 131.332 98.668 130.661 107.225C141.233 105.715 149.622 100.513 150.126 94.976C150.461 92.626 150.125 90.948 149.119 89.438ZM190.229 24.835C190.229 16.948 176.134 12.921 148.111 12.921C145.594 12.921 143.077 12.921 140.728 12.921C127.304 12.753 122.437 13.256 122.437 13.592C122.437 14.096 122.437 14.263 123.612 15.103C125.29 16.277 128.142 18.626 132.841 24.332C142.909 36.414 137.539 34.568 147.104 34.735C149.453 34.735 151.467 34.735 152.977 34.903C158.347 34.903 160.36 34.903 163.884 35.071C181.672 35.238 190.229 31.882 190.229 24.835Z" fill="black"/>
</g>
<defs>
<clipPath id="clip0">
<rect width="198.284" height="113.524" fill="white"/>
</clipPath>
</defs>
</svg>

<svg fill="none" height="114" viewBox="0 0 199 114" width="199" xmlns="http://www.w3.org/2000/svg" xmlns:xlink="http://www.w3.org/1999/xlink"><clipPath id="a"><path d="m0 0h198.284v113.524h-198.284z"/></clipPath><g clip-path="url(#a)"><path d="m198.284 25.002c0 11.746-10.572 17.116-33.393 17.116-3.859 0-7.047-.336-9.229-.504-4.027-.335-4.531-.167-4.531.168 0 .168 0 .504.839 2.014 1.007 1.679 2.349 4.195 2.349 7.384 0 3.188-1.007 5.033-1.678 6.544-.503 1.007-.839 1.678-.839 2.517 0 1.007.503 1.343 1.846 2.686 3.524 3.188 4.866 6.712 4.363 10.739-.335 3.355-1.51 4.866-2.685 6.544-.168.336-.336.671-.671 1.007-1.342 1.51-.671 2.685.335 4.362 1.846 2.854 2.685 5.873 2.517 9.397-1.174 13.424-22.989 19.968-36.748 18.29-6.209-.671-10.907-2.35-13.928-5.369-2.014-2.35-2.517-2.518-5.873-2.518-17.6192 0-25.1702-2.517-35.2382-8.39-5.537-3.188-8.893-4.866-12.92-6.209-3.524-1.343-3.356-1.51-3.356 2.853 0 5.705-2.685 7.384-11.746 7.719-6.544.168-6.712.168-8.39 3.188-3.021 5.537-5.538 4.53-15.102 2.853-18.12303-3.355-13.424032-.168-13.424032-46.816 0-52.187-7.718998-46.648 25.338032-47.823 20.975-.839 22.989-.671 23.325 5.873.335 3.021-.168 3.021 4.195 1.343 4.363-1.343 8.055-4.027 14.431-8.726 7.719-5.539 16.78-11.244 27.351-11.244 4.363 0 9.0612 1.175 13.4242 3.691 4.363 2.35 5.202 3.188 9.397 2.853 8.054-.839 17.619-.839 29.869-.839 34.231 0 50.172 6.041 50.172 19.297zm-156.0552 48.495c0-5.034-.167-11.411-.167-19.297 0-8.055.167-14.264.335-19.13.671-15.438.671-15.27-8.39-15.102-7.215.167-7.215.167-6.208 19.129.168 4.53.503 9.9.671 16.612.167 7.719.335 13.928.335 18.962.335 19.465.335 19.465 7.383 18.793 6.377-.502 6.377-1.006 6.041-19.967zm62.0862 18.122c-2.853-2.349-4.027-5.537-4.195-9.9-.3352-3.021-.8392-3.859-4.0272-4.698-4.531-1.678-8.39-6.041-8.726-10.067-.168-1.679.335-2.854.503-3.692.335-.839.168-.671.335-.503 0 0-.167 0-1.678.671s-3.859 1.846-7.048 1.846c-3.356 0-6.544-.839-9.732-2.853-3.859-2.014-5.538-3.021-4.195-5.202.839-1.678 2.014-1.846 4.866-.839.671.168 1.342.336 2.014.504 2.013.503 4.027 1.007 6.208 1.007 8.39 0 22.3172-7.384 22.3172-11.411 0-1.006-.503-1.51-1.8462-2.853-1.007-1.007-2.685-2.517-4.531-5.201-2.517-4.027-3.188-5.034-1.342-6.712 1.175-1.175 2.182-.84 4.195 1.174.503.504 1.175 1.175 1.846 1.846 9.9002 8.894 17.9552 12.921 25.1702 12.921 5.37 0 8.39-1.846 8.894-5.034.671-2.517 0-4.026-2.853-8.39-1.846-3.188-4.699-6.712-8.055-10.403-2.517 3.021-2.349 6.544.503 10.571.335.503.671 1.007 1.007 1.342 2.182 3.021 2.685 4.531.503 5.706-2.182 1.51-3.188-.168-6.041-4.699-4.027-6.712-3.859-11.578.336-16.612-7.216-6.88-15.941-12.417-23.9962-12.417-8.726 0-18.291 6.377-24.499 10.907-8.054 5.705-12.25 8.558-16.612 9.396-4.195 1.007-4.195.84-4.195 6.209v43.46c0 4.195.167 4.363 3.188 5.034 5.034 1.343 8.558 3.356 12.585 5.538 1.343.839 2.853 1.678 4.531 2.685 11.411 6.041 19.297 7.887 30.8752 7.383 3.691-.335 4.027-.503 4.866-2.685.843-2.015.843-2.183-1.171-4.029zm12.082-21.478c14.263-3.188 30.708-10.739 30.708-18.794 0-3.859-2.685-8.222-4.531-8.222-1.51 0-2.182.336-3.859 3.355-2.853 4.866-7.887 7.384-14.599 7.384-4.027 0-8.894-1.007-12.585-2.685-2.013-.839-2.349-.839-4.027.671-.503.336-1.175.839-2.014 1.51-6.7122 4.866-11.4112 7.552-11.4112 11.579.168 3.523 3.524 6.04 8.7262 6.544 2.685.168 5.873 0 9.062-.504 2.349-8.894-2.853-9.899-5.705-7.887-3.524 2.35-6.2092 2.686-7.0482.336-1.342-2.685 1.5102-4.195 4.8662-5.369 8.726-3.02 13.927 2.014 12.417 12.082zm30.708-3.356c-1.846-1.343-3.356-.672-6.209.671-7.047 3.188-20.639 7.551-29.868 9.062-4.363.671-4.699 1.007-4.363 5.201.336 4.027 3.188 6.713 8.223 7.216 2.181.336 5.37.168 8.893-.168 1.51-7.887-3.188-8.726-5.705-7.048-3.356 2.35-5.873 2.518-7.047.336-.671-2.35.671-3.691 4.866-5.202 8.054-2.853 12.92 1.679 12.082 11.243 12.753-2.518 21.982-8.055 22.485-13.76.334-3.189-.672-5.537-3.357-7.551zm2.014 22.653c-1.343-1.51-2.853-1.51-5.873-.167-8.726 3.523-16.445 4.362-22.15 5.033-6.544.84-10.068 1.175-10.404 4.363-.503 4.866 4.027 8.223 11.914 8.894 1.007.168 2.181.168 3.691 0 1.343-6.712-3.021-7.551-5.537-5.873-3.356 2.35-5.873 2.517-6.712.168-1.007-2.182.671-3.356 4.699-5.034 7.551-2.518 12.585 1.846 11.914 10.403 10.572-1.51 18.961-6.712 19.465-12.249.335-2.35-.001-4.028-1.007-5.538zm41.11-64.603c0-7.887-14.095-11.914-42.118-11.914-2.517 0-5.034 0-7.383 0-13.424-.168-18.291.335-18.291.671 0 .504 0 .671 1.175 1.511 1.678 1.174 4.53 3.523 9.229 9.229 10.068 12.082 4.698 10.236 14.263 10.403 2.349 0 4.363 0 5.873.168 5.37 0 7.383 0 10.907.168 17.788.167 26.345-3.189 26.345-10.236z" fill="#000"/></g></svg>
